web/assets/img/functions/980_3.svg

<svg width="512" height="512" viewBox="0 0 512 512" fill="none" xmlns="http://www.w3.org/2000/svg">
    <path d="M173.398 284C178.921 284 183.398 279.523 183.398 274C183.398 268.477 178.921 264 173.398 264C167.876 264 163.398 268.477 163.398 274C163.398 279.523 167.876 284 173.398 284Z"
          fill="#12A71E"/>
    <path d="M152.398 281C157.921 281 162.398 276.523 162.398 271C162.398 265.477 157.921 261 152.398 261C146.876 261 142.398 265.477 142.398 271C142.398 276.523 146.876 281 152.398 281Z"
          fill="#12A71E"/>
    <path d="M214.398 284C219.921 284 224.398 279.523 224.398 274C224.398 268.477 219.921 264 214.398 264C208.876 264 204.398 268.477 204.398 274C204.398 279.523 208.876 284 214.398 284Z"
          fill="#12A71E"/>
    <path d="M192.398 272C197.921 272 202.398 267.523 202.398 262C202.398 256.477 197.921 252 192.398 252C186.876 252 182.398 256.477 182.398 262C182.398 267.523 186.876 272 192.398 272Z"
          fill="#12A71E"/>
    <path d="M195.398 295C200.921 295 205.398 290.523 205.398 285C205.398 279.477 200.921 275 195.398 275C189.876 275 185.398 279.477 185.398 285C185.398 290.523 189.876 295 195.398 295Z"
          fill="#12A71E"/>
    <path d="M236.398 291C241.921 291 246.398 286.523 246.398 281C246.398 275.477 241.921 271 236.398 271C230.876 271 226.398 275.477 226.398 281C226.398 286.523 230.876 291 236.398 291Z"
          fill="#12A71E"/>
    <path d="M219.398 306C224.921 306 229.398 301.523 229.398 296C229.398 290.477 224.921 286 219.398 286C213.876 286 209.398 290.477 209.398 296C209.398 301.523 213.876 306 219.398 306Z"
          fill="#12A71E"/>
    <path d="M234.398 269C239.921 269 244.398 264.523 244.398 259C244.398 253.477 239.921 249 234.398 249C228.876 249 224.398 253.477 224.398 259C224.398 264.523 228.876 269 234.398 269Z"
          fill="#12A71E"/>
    <path d="M256.398 300C261.921 300 266.398 295.523 266.398 290C266.398 284.477 261.921 280 256.398 280C250.876 280 246.398 284.477 246.398 290C246.398 295.523 250.876 300 256.398 300Z"
          fill="#12A71E"/>
    <path d="M256.398 278C261.921 278 266.398 273.523 266.398 268C266.398 262.477 261.921 258 256.398 258C250.876 258 246.398 262.477 246.398 268C246.398 273.523 250.876 278 256.398 278Z"
          fill="#12A71E"/>
    <path d="M276.398 290C281.921 290 286.398 285.523 286.398 280C286.398 274.477 281.921 270 276.398 270C270.876 270 266.398 274.477 266.398 280C266.398 285.523 270.876 290 276.398 290Z"
          fill="#12A71E"/>
    <path d="M308.398 294C313.921 294 318.398 289.523 318.398 284C318.398 278.477 313.921 274 308.398 274C302.876 274 298.398 278.477 298.398 284C298.398 289.523 302.876 294 308.398 294Z"
          fill="#12A71E"/>
    <path d="M294.398 276C299.921 276 304.398 271.523 304.398 266C304.398 260.477 299.921 256 294.398 256C288.876 256 284.398 260.477 284.398 266C284.398 271.523 288.876 276 294.398 276Z"
          fill="#12A71E"/>
    <path d="M320.398 276C325.921 276 330.398 271.523 330.398 266C330.398 260.477 325.921 256 320.398 256C314.876 256 310.398 260.477 310.398 266C310.398 271.523 314.876 276 320.398 276Z"
          fill="#12A71E"/>
    <path d="M340.398 283C345.921 283 350.398 278.523 350.398 273C350.398 267.477 345.921 263 340.398 263C334.876 263 330.398 267.477 330.398 273C330.398 278.523 334.876 283 340.398 283Z"
          fill="#12A71E"/>
    <path d="M360.398 275C365.921 275 370.398 270.523 370.398 265C370.398 259.477 365.921 255 360.398 255C354.876 255 350.398 259.477 350.398 265C350.398 270.523 354.876 275 360.398 275Z"
          fill="#12A71E"/>
    <path d="M380.91 86.1804L380.85 85.9204L365.73 26.3604C363.931 19.2373 359.806 12.9181 354.01 8.40408C348.213 3.89008 341.076 1.43943 333.73 1.44043H285C280.252 1.44299 275.561 2.46993 271.246 4.45114C266.932 6.43235 263.096 9.32118 260 12.9204L234.43 42.5804C233.208 43.9993 231.698 45.1414 230 45.9304L219.83 50.5804C214.259 53.1094 209.506 57.1435 206.105 62.2284C202.704 67.3132 200.79 73.2467 200.58 79.3604L200.1 90.0004L136.52 119.92C134.808 120.724 133.36 121.996 132.342 123.589C131.325 125.181 130.779 127.03 130.77 128.92V500C130.77 502.653 131.823 505.196 133.698 507.072C135.574 508.947 138.117 510 140.77 510H371.23C373.882 510 376.425 508.947 378.301 507.072C380.176 505.196 381.23 502.653 381.23 500V88.6504C381.231 87.8167 381.123 86.9863 380.91 86.1804ZM220.54 80.1804C220.62 77.76 221.375 75.4102 222.72 73.396C224.065 71.3818 225.945 69.7832 228.15 68.7804L238.31 64.1304C242.633 62.149 246.478 59.2562 249.58 55.6504L275.11 26.0004C276.337 24.5782 277.857 23.4373 279.565 22.6555C281.274 21.8738 283.131 21.4696 285.01 21.4704H333.7C336.603 21.461 339.426 22.4237 341.719 24.2053C344.011 25.9868 345.642 28.4846 346.35 31.3004L357.9 76.7904L286.48 67.3104C267.044 64.7199 247.274 67.7892 229.54 76.1504L220.54 80.3804V80.1804ZM361.23 490H150.77V435.78C156.053 438.648 161.988 440.102 168 440C182.6 440 190.42 432.65 196.12 427.29C200.96 422.74 203.87 420 210.56 420C217.25 420 220.15 422.74 224.98 427.29C230.69 432.65 238.52 440 253.12 440C267.72 440 275.54 432.65 281.26 427.29C286.09 422.74 289.01 420 295.69 420C302.37 420 305.28 422.74 310.11 427.29C315.78 432.65 323.6 440 338.2 440C346.597 440.128 354.76 437.232 361.2 431.84L361.23 490ZM361.23 405.64C358.159 407.73 355.287 410.096 352.65 412.71C347.81 417.26 344.9 420 338.2 420C331.5 420 328.61 417.26 323.77 412.71C318.06 407.35 310.24 400 295.65 400C281.06 400 273.23 407.35 267.52 412.71C262.68 417.26 259.77 420 253.08 420C246.39 420 243.48 417.26 238.65 412.71C232.94 407.35 225.11 400 210.52 400C195.93 400 188.1 407.35 182.39 412.71C177.56 417.26 174.64 420 167.96 420C161.28 420 158.35 417.26 153.52 412.71C152.67 411.9 151.75 411.05 150.77 410.18V380.58C160.958 378.604 170.986 375.873 180.77 372.41C189.4 369.3 192.98 361.74 195.35 356.73C196.1 355.15 197.35 352.54 198.06 351.88C198.514 351.823 198.975 351.823 199.43 351.88C210.86 353.35 220.94 350.38 229.04 347.98C231.756 347.089 234.533 346.394 237.35 345.9C238.9 345.76 243.69 347.52 246.85 348.68C254.96 351.68 265.06 355.34 276.39 353.88C288.66 352.3 295.07 346.31 299.76 341.93C302.07 339.76 303.56 338.41 305.15 337.75C308.51 338.34 316.9 343.55 321.99 346.75C332.36 353.19 341.35 358.75 349.4 357.94C353.533 357.45 357.541 356.209 361.23 354.28V405.64ZM361.23 330.03C358.73 332.46 352.45 337.32 347.77 338.03C344.93 337.48 337.2 332.69 332.55 329.79C320.24 322.16 309.61 315.57 299.99 318.45C293.6 320.37 289.44 324.27 286.1 327.39C282.4 330.85 279.72 333.39 273.83 334.11C267.33 334.95 260.42 332.42 253.73 329.97C247.31 327.62 241.25 325.4 235.12 326.09C231.134 326.683 227.207 327.613 223.38 328.87C216.75 330.87 209.25 333.05 201.98 332.11C185.86 330.02 180.06 342.31 177.27 348.2C176.27 350.2 174.85 353.31 174 353.62C166.398 356.295 158.64 358.502 150.77 360.23V298.55C159.31 299.79 175.11 302.98 186.94 307.38C198.6 311.7 215.33 314.08 230.33 314.08C238.9 314.08 246.9 313.3 253.04 311.66C267.04 307.93 303.95 304.06 316.72 304.97C326.72 305.7 339.05 300.88 350.95 296.21C354.35 294.88 357.95 293.47 361.23 292.33V330.03ZM361.23 271.39C355.262 273.139 349.393 275.208 343.65 277.59C334.74 281.08 323.65 285.41 318.15 285.03C303.35 283.95 263.96 288.03 247.9 292.34C234.96 295.78 208.23 293.94 193.9 288.62C179.57 283.3 160.9 279.62 150.77 278.41V183.71L238 142.64C252.268 135.913 268.174 133.445 283.81 135.53L361.19 145.8L361.23 271.39ZM361.23 125.62L286.48 115.71C267.045 113.117 247.275 116.183 229.54 124.54L150.77 161.61V135.31L238 94.2404C252.271 87.524 268.175 85.0591 283.81 87.1404L361.23 97.4004V125.62Z"
          fill="#282828"/>
</svg>

<?xml version="1.0" encoding="utf-8"?>
<!-- Generator: Adobe Illustrator 28.2.0, SVG Export Plug-In . SVG Version: 6.00 Build 0)  -->
<svg version="1.1" id="Calque_1" xmlns="http://www.w3.org/2000/svg" xmlns:xlink="http://www.w3.org/1999/xlink" x="0px" y="0px"
	 viewBox="0 0 512 512" style="enable-background:new 0 0 512 512;" xml:space="preserve">
<style type="text/css">
	.st0{fill:#33B0DF;}
	.st1{fill:#282828;}
</style>
<path class="st0" d="M173.4,284c5.5,0,10-4.5,10-10s-4.5-10-10-10c-5.5,0-10,4.5-10,10S167.9,284,173.4,284z"/>
<path class="st0" d="M152.4,281c5.5,0,10-4.5,10-10s-4.5-10-10-10c-5.5,0-10,4.5-10,10S146.9,281,152.4,281z"/>
<path class="st0" d="M214.4,284c5.5,0,10-4.5,10-10s-4.5-10-10-10c-5.5,0-10,4.5-10,10S208.9,284,214.4,284z"/>
<path class="st0" d="M192.4,272c5.5,0,10-4.5,10-10s-4.5-10-10-10c-5.5,0-10,4.5-10,10S186.9,272,192.4,272z"/>
<path class="st0" d="M195.4,295c5.5,0,10-4.5,10-10s-4.5-10-10-10c-5.5,0-10,4.5-10,10S189.9,295,195.4,295z"/>
<path class="st0" d="M236.4,291c5.5,0,10-4.5,10-10s-4.5-10-10-10c-5.5,0-10,4.5-10,10S230.9,291,236.4,291z"/>
<path class="st0" d="M219.4,306c5.5,0,10-4.5,10-10s-4.5-10-10-10c-5.5,0-10,4.5-10,10S213.9,306,219.4,306z"/>
<path class="st0" d="M234.4,269c5.5,0,10-4.5,10-10c0-5.5-4.5-10-10-10c-5.5,0-10,4.5-10,10C224.4,264.5,228.9,269,234.4,269z"/>
<path class="st0" d="M256.4,300c5.5,0,10-4.5,10-10s-4.5-10-10-10c-5.5,0-10,4.5-10,10S250.9,300,256.4,300z"/>
<path class="st0" d="M256.4,278c5.5,0,10-4.5,10-10s-4.5-10-10-10c-5.5,0-10,4.5-10,10S250.9,278,256.4,278z"/>
<path class="st0" d="M276.4,290c5.5,0,10-4.5,10-10s-4.5-10-10-10c-5.5,0-10,4.5-10,10S270.9,290,276.4,290z"/>
<path class="st0" d="M308.4,294c5.5,0,10-4.5,10-10s-4.5-10-10-10c-5.5,0-10,4.5-10,10S302.9,294,308.4,294z"/>
<path class="st0" d="M294.4,276c5.5,0,10-4.5,10-10s-4.5-10-10-10c-5.5,0-10,4.5-10,10S288.9,276,294.4,276z"/>
<path class="st0" d="M320.4,276c5.5,0,10-4.5,10-10s-4.5-10-10-10c-5.5,0-10,4.5-10,10S314.9,276,320.4,276z"/>
<path class="st0" d="M340.4,283c5.5,0,10-4.5,10-10s-4.5-10-10-10c-5.5,0-10,4.5-10,10S334.9,283,340.4,283z"/>
<path class="st0" d="M360.4,275c5.5,0,10-4.5,10-10s-4.5-10-10-10c-5.5,0-10,4.5-10,10S354.9,275,360.4,275z"/>
<path class="st1" d="M380.9,86.2l-0.1-0.3l-15.1-59.6c-1.8-7.1-5.9-13.4-11.7-18c-5.8-4.5-12.9-7-20.3-7H285c-4.7,0-9.4,1-13.8,3
	c-4.3,2-8.1,4.9-11.2,8.5l-25.6,29.7c-1.2,1.4-2.7,2.6-4.4,3.4l-10.2,4.6c-5.6,2.5-10.3,6.6-13.7,11.6c-3.4,5.1-5.3,11-5.5,17.1
	L200.1,90l-63.6,29.9c-1.7,0.8-3.2,2.1-4.2,3.7c-1,1.6-1.6,3.4-1.6,5.3V500c0,2.7,1.1,5.2,2.9,7.1c1.9,1.9,4.4,2.9,7.1,2.9h230.5
	c2.7,0,5.2-1.1,7.1-2.9c1.9-1.9,2.9-4.4,2.9-7.1V88.7C381.2,87.8,381.1,87,380.9,86.2z M220.5,80.2c0.1-2.4,0.8-4.8,2.2-6.8
	c1.3-2,3.2-3.6,5.4-4.6l10.2-4.7c4.3-2,8.2-4.9,11.3-8.5L275.1,26c1.2-1.4,2.7-2.6,4.5-3.3c1.7-0.8,3.6-1.2,5.4-1.2h48.7
	c2.9,0,5.7,1,8,2.7c2.3,1.8,3.9,4.3,4.6,7.1l11.5,45.5l-71.4-9.5c-19.4-2.6-39.2,0.5-56.9,8.8l-9,4.2V80.2z M361.2,490H150.8v-54.2
	c5.3,2.9,11.2,4.3,17.2,4.2c14.6,0,22.4-7.4,28.1-12.7c4.8-4.6,7.8-7.3,14.4-7.3s9.6,2.7,14.4,7.3c5.7,5.4,13.5,12.7,28.1,12.7
	c14.6,0,22.4-7.4,28.1-12.7c4.8-4.6,7.8-7.3,14.4-7.3s9.6,2.7,14.4,7.3c5.7,5.4,13.5,12.7,28.1,12.7c8.4,0.1,16.6-2.8,23-8.2
	L361.2,490z M361.2,405.6c-3.1,2.1-5.9,4.5-8.6,7.1c-4.8,4.6-7.8,7.3-14.4,7.3c-6.7,0-9.6-2.7-14.4-7.3
	c-5.7-5.4-13.5-12.7-28.1-12.7s-22.4,7.4-28.1,12.7c-4.8,4.6-7.8,7.3-14.4,7.3c-6.7,0-9.6-2.7-14.4-7.3
	c-5.7-5.4-13.5-12.7-28.1-12.7c-14.6,0-22.4,7.4-28.1,12.7c-4.8,4.6-7.8,7.3-14.4,7.3c-6.7,0-9.6-2.7-14.4-7.3
	c-0.9-0.8-1.8-1.7-2.8-2.5v-29.6c10.2-2,20.2-4.7,30-8.2c8.6-3.1,12.2-10.7,14.6-15.7c0.8-1.6,2-4.2,2.7-4.9c0.5-0.1,0.9-0.1,1.4,0
	c11.4,1.5,21.5-1.5,29.6-3.9c2.7-0.9,5.5-1.6,8.3-2.1c1.5-0.1,6.3,1.6,9.5,2.8c8.1,3,18.2,6.7,29.5,5.2c12.3-1.6,18.7-7.6,23.4-12
	c2.3-2.2,3.8-3.5,5.4-4.2c3.4,0.6,11.8,5.8,16.8,9c10.4,6.4,19.4,12,27.4,11.2c4.1-0.5,8.1-1.7,11.8-3.7V405.6z M361.2,330
	c-2.5,2.4-8.8,7.3-13.5,8c-2.8-0.5-10.6-5.3-15.2-8.2c-12.3-7.6-22.9-14.2-32.6-11.3c-6.4,1.9-10.5,5.8-13.9,8.9
	c-3.7,3.5-6.4,6-12.3,6.7c-6.5,0.8-13.4-1.7-20.1-4.1c-6.4-2.4-12.5-4.6-18.6-3.9c-4,0.6-7.9,1.5-11.7,2.8c-6.6,2-14.1,4.2-21.4,3.2
	c-16.1-2.1-21.9,10.2-24.7,16.1c-1,2-2.4,5.1-3.3,5.4c-7.6,2.7-15.4,4.9-23.2,6.6v-61.7c8.5,1.2,24.3,4.4,36.2,8.8
	c11.7,4.3,28.4,6.7,43.4,6.7c8.6,0,16.6-0.8,22.7-2.4c14-3.7,50.9-7.6,63.7-6.7c10,0.7,22.3-4.1,34.2-8.8c3.4-1.3,7-2.7,10.3-3.9
	V330z M361.2,271.4c-6,1.7-11.8,3.8-17.6,6.2c-8.9,3.5-20,7.8-25.5,7.4c-14.8-1.1-54.2,3-70.2,7.3c-12.9,3.4-39.7,1.6-54-3.7
	c-14.3-5.3-33-9-43.1-10.2v-94.7l87.2-41.1c14.3-6.7,30.2-9.2,45.8-7.1l77.4,10.3L361.2,271.4z M361.2,125.6l-74.8-9.9
	c-19.4-2.6-39.2,0.5-56.9,8.8l-78.8,37.1v-26.3L238,94.2c14.3-6.7,30.2-9.2,45.8-7.1l77.4,10.3V125.6z"/>
</svg>
